X: 22854
T: Lark In The Morning, The
R: jig
M: 6/8
K: Dmajor
|:u d/B/|AFA AFA|BGB BdB|AFA Ade|fed BdB|
AFA AFA|BAB BAB|def afe|fdB B2:|
|:u A|def afa|baf afe|def afe|fdB BAB|
def afa|bag agf|gfg fef|dBB B2:|
|:A|def {g/}fef|fef fef|def fef|edB {d/}BAB|
def fef|fef fef|baf fef|dBB B2:|

